images/deadline-img.svg

<svg width="52" height="51" viewBox="0 0 52 51" fill="none" xmlns="http://www.w3.org/2000/svg">
<path d="M44.5421 37.437L41.4225 40.4455L39.5542 38.6354C39.2087 38.3022 38.6485 38.3022 38.303 38.6354C37.9574 38.9686 37.9574 39.5089 38.303 39.8422L40.7969 42.2474C40.9621 42.4084 41.1876 42.4989 41.4225 42.4989C41.6575 42.4989 41.8825 42.4084 42.0482 42.2474L45.8286 38.6354C46.0799 38.4279 46.1896 38.1017 46.1122 37.7913C46.0347 37.4805 45.7835 37.2382 45.4616 37.1635C45.1398 37.0888 44.8016 37.1946 44.586 37.437H44.5421Z" fill="#FFBB01"/>
<path d="M45.8296 31.5306V28.8959C45.8296 28.4266 45.435 28.046 44.9483 28.046H42.3043V27.1962C42.3043 25.7881 43.4881 24.6465 44.9483 24.6465C45.435 24.6465 45.8296 24.266 45.8296 23.7967C45.8296 23.3273 45.435 22.9468 44.9483 22.9468C42.5147 22.9468 40.5416 24.8495 40.5416 27.1962V28.046H37.8976C37.4109 28.046 37.0163 28.4266 37.0163 28.8959V31.5306C32.4964 33.5283 30.0301 38.2922 31.0901 42.9761C32.1504 47.6604 36.4508 51.0001 41.4229 51.0001C46.3946 51.0001 50.6954 47.6604 51.7558 42.9761C52.8157 38.2922 50.3494 33.5283 45.8296 31.5306ZM42.3043 49.2929V48.443C42.3043 47.9737 41.9096 47.5931 41.4229 47.5931C40.9362 47.5931 40.5416 47.9737 40.5416 48.443V49.2929C36.3389 48.9045 33.0124 45.6967 32.6096 41.644H33.4909C33.9776 41.644 34.3723 41.2635 34.3723 40.7941C34.3723 40.3248 33.9776 39.9443 33.4909 39.9443H32.6096C32.9418 36.7701 35.0892 34.0429 38.1709 32.8818C38.51 32.7556 38.7337 32.4419 38.735 32.0912V29.7458H44.023V32.0912C44.0239 32.4419 44.2477 32.7556 44.5868 32.8818C47.7029 34.0176 49.8886 36.7498 50.2363 39.9443H49.3549C48.8682 39.9443 48.4736 40.3248 48.4736 40.7941C48.4736 41.2635 48.8682 41.644 49.3549 41.644H50.2363C49.8335 45.6967 46.507 48.9045 42.3043 49.2929Z" fill="#FFBB01"/>
<path d="M28.3877 44.1935C28.2027 44.1935 4.40667 44.1935 4.40667 44.1935C2.94653 44.1935 1.76267 43.0519 1.76267 41.6439V14.4479H47.5921V30.1365C47.5921 30.6059 47.9867 30.9864 48.4734 30.9864C48.9601 30.9864 49.3547 30.6059 49.3547 30.1365V8.49875C49.3547 6.15205 47.3816 4.24938 44.9481 4.24938H43.1854V3.3995C43.1854 2.93016 42.7908 2.54963 42.3041 2.54963C41.8173 2.54963 41.4227 2.93016 41.4227 3.3995V6.799C41.4227 7.73768 40.6335 8.49875 39.66 8.49875C38.6866 8.49875 37.8974 7.73768 37.8974 6.799V3.3995C37.8974 2.46082 38.6866 1.69975 39.66 1.69975C40.1468 1.69975 40.5414 1.31922 40.5414 0.849875C40.5414 0.380535 40.1468 0 39.66 0C37.7132 0 36.1347 1.52214 36.1347 3.3995V4.24938H28.2027V3.3995C28.2027 2.93016 27.8081 2.54963 27.3214 2.54963C26.8347 2.54963 26.44 2.93016 26.44 3.3995V6.799C26.44 7.73768 25.6508 8.49875 24.6774 8.49875C23.7039 8.49875 22.9147 7.73768 22.9147 6.799V3.3995C22.9147 2.46082 23.7039 1.69975 24.6774 1.69975C25.1641 1.69975 25.5587 1.31922 25.5587 0.849875C25.5587 0.380535 25.1641 0 24.6774 0C22.7305 0 21.152 1.52214 21.152 3.3995V4.24938H13.22V3.3995C13.22 2.93016 12.8254 2.54963 12.3387 2.54963C11.852 2.54963 11.4573 2.93016 11.4573 3.3995V6.799C11.4573 7.73768 10.6681 8.49875 9.69468 8.49875C8.72125 8.49875 7.93201 7.73768 7.93201 6.799V3.3995C7.93201 2.46082 8.72125 1.69975 9.69468 1.69975C10.1814 1.69975 10.576 1.31922 10.576 0.849875C10.576 0.380535 10.1814 0 9.69468 0C7.74782 0 6.16934 1.52214 6.16934 3.3995V4.24938H4.40667C1.9731 4.24938 0 6.15205 0 8.49875V41.6439C0 43.9906 1.9731 45.8933 4.40667 45.8933H24.6774C29.3044 45.8933 29.3044 45.8933 29.3044 45.0434C29.3057 44.8176 29.2136 44.6002 29.0487 44.44C28.874 44.2724 28.6343 44.1827 28.3877 44.1935ZM4.40667 5.94913H6.16934V6.799C6.16934 8.67636 7.74782 10.1985 9.69468 10.1985C11.6415 10.1985 13.22 8.67636 13.22 6.799V5.94913H21.152V6.799C21.152 8.67636 22.7305 10.1985 24.6774 10.1985C26.6242 10.1985 28.2027 8.67636 28.2027 6.799V5.94913H36.1347V6.799C36.1347 8.67636 37.7132 10.1985 39.66 10.1985C41.6069 10.1985 43.1854 8.67636 43.1854 6.799V5.94913H44.9481C46.4082 5.94913 47.5921 7.09073 47.5921 8.49875V12.7481H1.76267V8.49875C1.76267 7.09073 2.94653 5.94913 4.40667 5.94913Z" fill="#FFBB01"/>
<path d="M15.8642 17.8474C15.8642 17.3781 15.4696 16.9976 14.9829 16.9976H7.93224C7.44552 16.9976 7.0509 17.3781 7.0509 17.8474V24.6464C7.0509 25.1158 7.44552 25.4963 7.93224 25.4963H14.9829C15.4696 25.4963 15.8642 25.1158 15.8642 24.6464V17.8474ZM14.1016 23.7966H8.81357V18.6973H14.1016V23.7966Z" fill="#FFBB01"/>
<path d="M14.9829 30.5955C15.4696 30.5955 15.8642 30.215 15.8642 29.7456C15.8642 29.2763 15.4696 28.8958 14.9829 28.8958H7.93224C7.44552 28.8958 7.0509 29.2763 7.0509 29.7456V36.5446C7.0509 37.014 7.44552 37.3945 7.93224 37.3945H14.9829C15.4696 37.3945 15.8642 37.014 15.8642 36.5446V33.1451C15.8642 32.6758 15.4696 32.2952 14.9829 32.2952C14.4962 32.2952 14.1016 32.6758 14.1016 33.1451V35.6947H8.81357V30.5955H14.9829Z" fill="#FFBB01"/>
<path d="M20.271 28.8958C19.7843 28.8958 19.3896 29.2763 19.3896 29.7456V36.5446C19.3896 37.014 19.7843 37.3945 20.271 37.3945H27.3216C27.8084 37.3945 28.203 37.014 28.203 36.5446V29.7456C28.203 29.2763 27.8084 28.8958 27.3216 28.8958H20.271ZM26.4403 35.6947H21.1523V30.5955H26.4403V35.6947Z" fill="#FFBB01"/>
<path d="M39.6603 23.7966C40.147 23.7966 40.5416 23.416 40.5416 22.9467V17.8474C40.5416 17.3781 40.147 16.9976 39.6603 16.9976H32.6096C32.1229 16.9976 31.7283 17.3781 31.7283 17.8474V24.6464C31.7283 25.1158 32.1229 25.4963 32.6096 25.4963C33.0963 25.4963 33.4909 25.1158 33.4909 24.6464V18.6973H38.7789V22.9467C38.7789 23.416 39.1736 23.7966 39.6603 23.7966Z" fill="#FFBB01"/>
<path d="M27.9474 17.2442C27.7817 17.0831 27.5566 16.9927 27.3217 16.9927C27.0867 16.9927 26.8612 17.0831 26.6959 17.2442L23.7963 20.0486L20.8967 17.2442C20.5511 16.9109 19.9908 16.9109 19.6453 17.2442C19.2997 17.5774 19.2997 18.1177 19.6453 18.4509L22.5535 21.247L19.6453 24.0432C19.4783 24.2025 19.3845 24.42 19.3845 24.6465C19.3845 24.8731 19.4783 25.0906 19.6453 25.2499C19.8105 25.4109 20.036 25.5014 20.271 25.5014C20.506 25.5014 20.731 25.4109 20.8967 25.2499L23.7963 22.4455L26.6959 25.2499C26.8612 25.4109 27.0867 25.5014 27.3217 25.5014C27.5566 25.5014 27.7817 25.4109 27.9474 25.2499C28.1143 25.0906 28.2082 24.8731 28.2082 24.6465C28.2082 24.42 28.1143 24.2025 27.9474 24.0432L25.0391 21.247L27.9474 18.4509C28.1143 18.2916 28.2082 18.0741 28.2082 17.8475C28.2082 17.621 28.1143 17.4035 27.9474 17.2442Z" fill="#FFBB01"/>
</svg>

<svg width="52" height="51" fill="none" xmlns="http://www.w3.org/2000/svg"><path d="M44.542 37.437l-3.12 3.009-1.868-1.81a.908.908 0 00-1.251 0 .832.832 0 000 1.206l2.494 2.405c.165.161.39.252.626.252.234 0 .46-.09.625-.252l3.78-3.612a.832.832 0 00.284-.844.866.866 0 00-.65-.627.902.902 0 00-.876.273h-.044z" fill="#FFBB01"/><path d="M45.83 31.53v-2.634c0-.47-.395-.85-.882-.85h-2.644v-.85c0-1.408 1.184-2.55 2.644-2.55.487 0 .882-.38.882-.85 0-.469-.395-.85-.882-.85-2.433 0-4.406 1.903-4.406 4.25v.85h-2.644c-.487 0-.882.38-.882.85v2.635c-4.52 1.997-6.986 6.761-5.926 11.445C32.15 47.66 36.45 51 41.423 51c4.972 0 9.272-3.34 10.333-8.024 1.06-4.684-1.407-9.448-5.926-11.445zm-3.526 17.763v-.85c0-.47-.394-.85-.881-.85s-.881.38-.881.85v.85c-4.203-.389-7.53-3.596-7.932-7.649h.88c.488 0 .882-.38.882-.85s-.394-.85-.881-.85h-.881c.332-3.174 2.48-5.901 5.56-7.062a.852.852 0 00.565-.79v-2.346h5.288v2.345c0 .35.225.665.564.79 3.116 1.137 5.302 3.869 5.65 7.063h-.882c-.487 0-.881.38-.881.85s.394.85.88.85h.882c-.402 4.053-3.729 7.26-7.932 7.649z" fill="#FFBB01"/><path d="M28.388 44.194H4.407c-1.46 0-2.644-1.142-2.644-2.55V14.448h45.83v15.689c0 .469.394.85.88.85.487 0 .882-.381.882-.85V8.498c0-2.347-1.973-4.25-4.407-4.25h-1.763V3.4c0-.469-.394-.85-.88-.85-.488 0-.882.381-.882.85v3.4c0 .939-.79 1.7-1.763 1.7-.973 0-1.763-.761-1.763-1.7v-3.4c0-.938.79-1.7 1.763-1.7.487 0 .881-.38.881-.85 0-.468-.394-.849-.881-.849-1.947 0-3.525 1.522-3.525 3.4v.85h-7.932V3.4c0-.47-.395-.85-.882-.85-.486 0-.881.38-.881.85v3.399c0 .939-.79 1.7-1.763 1.7-.973 0-1.762-.761-1.762-1.7v-3.4c0-.938.789-1.7 1.762-1.7.487 0 .882-.38.882-.85 0-.468-.395-.849-.882-.849-1.947 0-3.525 1.522-3.525 3.4v.85H13.22V3.4c0-.47-.395-.85-.881-.85-.487 0-.882.38-.882.85v3.399c0 .939-.789 1.7-1.762 1.7-.974 0-1.763-.761-1.763-1.7v-3.4c0-.938.79-1.7 1.763-1.7.486 0 .881-.38.881-.85 0-.468-.395-.849-.881-.849-1.947 0-3.526 1.522-3.526 3.4v.85H4.407C1.973 4.25 0 6.151 0 8.498v33.145c0 2.347 1.973 4.25 4.407 4.25h20.27c4.627 0 4.627 0 4.627-.85a.835.835 0 00-.255-.604.899.899 0 00-.661-.246zM4.407 5.949h1.762v.85c0 1.877 1.579 3.4 3.526 3.4 1.947 0 3.525-1.523 3.525-3.4v-.85h7.932v.85c0 1.877 1.578 3.4 3.525 3.4 1.947 0 3.526-1.523 3.526-3.4v-.85h7.932v.85c0 1.877 1.578 3.4 3.525 3.4 1.947 0 3.525-1.523 3.525-3.4v-.85h1.763c1.46 0 2.644 1.142 2.644 2.55v4.25H1.762v-4.25c0-1.408 1.185-2.55 2.645-2.55z" fill="#FFBB01"/><path d="M15.864 17.847c0-.469-.394-.85-.881-.85h-7.05c-.487 0-.882.381-.882.85v6.8c0 .469.395.85.881.85h7.05c.488 0 .882-.381.882-.85v-6.8zm-1.762 5.95H8.814v-5.1h5.288v5.1zM14.983 30.596c.487 0 .881-.381.881-.85 0-.47-.394-.85-.881-.85h-7.05c-.487 0-.882.38-.882.85v6.799c0 .469.395.85.881.85h7.05c.488 0 .882-.381.882-.85v-3.4c0-.47-.394-.85-.881-.85s-.881.38-.881.85v2.55H8.814v-5.1h6.169zM20.271 28.896c-.487 0-.881.38-.881.85v6.799c0 .469.394.85.881.85h7.05c.487 0 .882-.381.882-.85v-6.8c0-.469-.395-.85-.881-.85H20.27zm6.17 6.799h-5.289v-5.1h5.288v5.1zM39.66 23.797c.487 0 .882-.381.882-.85v-5.1c0-.469-.395-.85-.882-.85h-7.05c-.487 0-.882.381-.882.85v6.8c0 .469.395.85.882.85.486 0 .88-.381.88-.85v-5.95h5.289v4.25c0 .469.395.85.881.85zM27.947 17.244a.898.898 0 00-.625-.251c-.235 0-.46.09-.626.251l-2.9 2.805-2.9-2.805a.908.908 0 00-1.25 0 .832.832 0 000 1.207l2.907 2.796-2.908 2.796a.834.834 0 00-.26.604c0 .226.093.444.26.603.166.16.391.251.626.251s.46-.09.626-.251l2.9-2.805 2.899 2.805c.165.16.39.251.626.251.235 0 .46-.09.625-.251a.834.834 0 00.261-.604.834.834 0 00-.26-.603l-2.909-2.796 2.908-2.796a.834.834 0 00.261-.604.834.834 0 00-.26-.603z" fill="#FFBB01"/></svg>
